!!!!SEGMENT: pl-wru--50044-muz--006_buchner-philipp-friedrich--plectrum-musicum-sonata-vi.krn
!!!cenid: 16xx:1807
!!!COM: Buchner, Philipp Friedrich
!!!COM-rismID: pe30013776
!!!CDT:
!!!CNT:
!!!GTL: Plectrum musicum
!!!OTL: Sonata VI
!!!PDT: 1662
!!!AGN:
!!!SMS-siglum: PL-WRu
!!!SMS-shelfmark: 50044 Muz.
!!!SMS-shelfwork: 006 G
!!!SMS-variant:
!!!SMS-altvar:
!!!NIFC-rismSourceID: 990007465
!!!NIFC-rismChildID: 990007465
!!!NIFC-islandoraID:
!!!URL-pdf-islandora:
!!!URL-scan: https://www.bibliotekacyfrowa.pl/dlibra/doccontent?id=116
!!!ONB-nifc: UWAGA: Violino I: s. 8-9, Viola da gamba: s. 44-45, Bassus: s. 69, Bassus continuus: s. 84
!!!AIN: 1 cbass 1 cemba 1 viola 1 violn
!!!key: a
**kern	**fba	**kern	**fba	**kern	**kern
*part4	*part4	*part3	*part3	*part2	*part1
*staff4	*	*staff3	*	*staff2	*staff1
*I"BASSUS CONTINUUS.	*	*I"BASSUS	*	*I"VIOLA DA GAMBA.	*I"VIOLINO I.
*I'bc	*	*I'b	*	*I'vla da gamba	*I'vl 1
*Icemba	*	*Icbass	*	*Iviola	*Ivioln
*ICklav	*	*ICstr	*	*ICstr	*ICstr
*IGcont	*	*IGcont	*	*	*
*clefF4	*	*clefF4	*	*clefC4	*clefG2
*k[]	*	*k[]	*	*k[]	*k[]
*a:	*	*a:	*	*a:	*a:
*M2/2	*	*M2/2	*	*M2/2	*M2/2
*met(C|)	*	*met(C|)	*	*met(C|)	*met(C|)
=1-	=1-	=1-	=1-	=1-	=1-
!!LO:TX:t=P:problem=kreski pseudotaktowe jako oddechy:global
!	!	!	!	!LO:TX:b:t=Largo.	!LO:TX:b:t=Largo.
[<2A\	.	[<2A\	.	4r	0r
.	.	.	.	4e\	.
2A\]	6	2A\]	6	4f\	.
.	5	.	5	4c\	.
=2-	=2-	=2-	=2-	=2-	=2-
4G#X\	.	4G#X\	.	4e\	.
4A\	.	4A\	.	8r	.
.	.	.	.	8e\	.
4D/	.	4D/	.	4.d\	.
!LO:TX:t=P:problem=kreska pseudotaktowa	!	!LO:TX:t=P:problem=kreska pseudotaktowa	!	!	!
4E\	7 #	4E\	7 #	.	.
!	!	!	!	!LO:TX:t=P:problem=kreska pseudotaktowa	!
.	3 x	.	3 x	8G#X/	.
=3-	=3-	=3-	=3-	=3-	=3-
4F\	.	4F\	.	4A/	2r
4Gny\	.	4Gny\	.	4B\	.
8A\	.	8A\	.	4.c\	4r
8B\	.	8B\	.	.	.
8c\	.	8c\	.	.	4ee\
8B\	.	8B\	.	8B\	.
=4-	=4-	=4-	=4-	=4-	=4-
2A\	6	2A\	6	4.A/	4ff\
.	5	.	5	.	4cc\
.	.	.	.	16Gny/	.
.	.	.	.	16F/	.
!	!	!	!	!LO:TX:t=P:problem=kreska pseudotaktowa	!
4E\	.	4E\	.	2E/	4ee\
!LO:TX:t=P:problem=kreska pseudotaktowa	!	!LO:TX:t=P:problem=kreska pseudotaktowa	!	!	!
4C/	.	4C/	.	.	8r
!	!	!	!	!	!LO:TX:t=P:problem=kreska pseudotaktowa
.	.	.	.	.	8ee\
*	*	*	*	*clefF4	*
=5-	=5-	=5-	=5-	=5-	=5-
4D/	.	4D/	.	4r	4.dd\
4E\	7 #	4E\	7 #	8.E\	.
.	3 x	.	3 x	.	8g#X/
.	.	.	.	16D/	.
4C/	6	4C/	6	4C/	4a/
4BB/	6	4BB/	6	4BB/	4b/
=6-	=6-	=6-	=6-	=6-	=6-
4AA/	.	4AA/	.	4AA/	2cc\
[<4A\	.	[<4A\	.	4.A\	.
4A\]	2	4A\]	2	.	4.b/
.	.	.	.	8B\	.
4G\	6	4G\	6	4G\	.
!	!	!	!	!	!LO:TX:t=P:problem=kreska pseudotaktowa
.	.	.	.	.	8cc\
=7-	=7-	=7-	=7-	=7-	=7-
2F\	7	2F\	7	2F\	4a/
.	6	.	6	.	4.dd\
!LO:TX:t=P:problem=kreska pseudotaktowa	!	!LO:TX:t=P:problem=kreska pseudotaktowa	!	!	!
2E\	7	2E\	7	4.E\	.
.	.	.	.	.	8ee\
.	6	.	6	.	4cc\
.	.	.	.	8F\	.
=8-	=8-	=8-	=8-	=8-	=8-
4D/	6	4D/	6	4.D/	4b/
4C/	7 6	4C/	7 6	.	4.a/
.	6 x	.	6 x	16C/	.
.	.	.	.	16D/	.
2BB/	#	2BB/	#	2BB/	.
.	.	.	.	.	8b/
!	!	!	!	!	!LO:TX:t=P:problem=kreska pseudotaktowa
.	.	.	.	.	4g#X/
=9-	=9-	=9-	=9-	=9-	=9-
2.AA/	.	2.AA/	.	2AA/	4a/
.	.	.	.	.	4aa\
.	.	.	.	2r	4bb\
!LO:TX:t=P:problem=kreska pseudotaktowa	!	!LO:TX:t=P:problem=kreska pseudotaktowa	!	!	!
4E\	.	4E\	.	.	4gg\
=10-	=10-	=10-	=10-	=10-	=10-
2F\	.	2F\	.	0r	4aa\
.	.	.	.	.	8r
.	.	.	.	.	8aa\
4G\	7	4G\	7	.	4.gg\
4A\	#	4A\	#	.	.
!	!	!	!	!	!LO:TX:t=P:problem=kreska pseudotaktowa
.	.	.	.	.	8cc#X\
=11-	=11-	=11-	=11-	=11-	=11-
4F\	6	4F\	6	.	4dd\
4E\	6	4E\	6	.	4ee\
!LO:TX:t=P:problem=kreska pseudotaktowa	!	!LO:TX:t=P:problem=kreska pseudotaktowa	!	!	!
2D/	5	2D/	5	.	2ff\
.	6	.	6	.	.
*	*	*	*	*custos:A	*custos:ee
!	!	!	!	!LO:LB:g=original	!LO:LB:g=original
=12-	=12-	=12-	=12-	=12-	=12-
2A\	.	2A\	.	4r	2ee\
.	.	.	.	4A\	.
4c\	.	4c\	.	4c\	4r
!	!	!	!	!	!LO:TX:t=P:problem=kreska pseudotaktowa
4G\	.	4G\	.	4G\	4ee\
*custos:A	*	*custos:A	*	*	*
!LO:LB:g=original	!	!LO:LB:g=original	!	!	!
=13-	=13-	=13-	=13-	=13-	=13-
2A\	6	2A\	6	4A\	4ff\
.	5	.	5	8r	4ccny\
.	.	.	.	8A\	.
4E\	.	4E\	.	4.G\	4ee\
!LO:TX:t=P:problem=kreska pseudotaktowa	!	!LO:TX:t=P:problem=kreska pseudotaktowa	!	!	!
4C#X/	.	4C#X/	.	.	8r
!	!	!	!	!LO:TX:t=P:problem=kreska pseudotaktowa	!
.	.	.	.	8C#X/	8ee\
=14-	=14-	=14-	=14-	=14-	=14-
4D/	.	4D/	.	4D/	4.dd\
4E\	7 #	4E\	7 #	4E\	.
.	3 x	.	3 x	.	8g#X/
2F\	.	2F\	.	2F\	4a/
.	.	.	.	.	4b/
=15-	=15-	=15-	=15-	=15-	=15-
4E\	6	4E\	6	16E\	8cc\
*	*	*	*	*clefC4	*
.	.	.	.	16e\	.
.	.	.	.	16d\	8b/
.	.	.	.	32e\	.
.	.	.	.	32d\	.
4F\	.	4F\	.	16c\	2a/
.	.	.	.	16A/	.
.	.	.	.	16G/	.
.	.	.	.	32A/	.
.	.	.	.	32G/	.
4D/	.	4D/	.	16F/	.
.	.	.	.	16D/	.
.	.	.	.	32Cny/	.
.	.	.	.	32D/	.
.	.	.	.	32C/	.
.	.	.	.	32D/	.
4E\	#	4E\	#	8.E/	4g#X/
*	*	*	*	*clefF4	*
.	.	.	.	16EE/	.
=16-	=16-	=16-	=16-	=16-	=16-
!LO:TX:t=P:problem=kreska pseudotaktowa	!	!LO:TX:t=P:problem=kreska pseudotaktowa	!	!LO:TX:t=P:problem=kreska pseudotaktowa	!LO:TX:t=P:problem=kreska pseudotaktowa
1AA	.	1AA	.	1AA	1a
*	*	*	*	*clefC4	*
=17-	=17-	=17-	=17-	=17-	=17-
!LO:TX:b:t=taſto ſolo.	!	!LO:TX:b:t=taſto ſolo.	!	!	!LO:TX:b:t=adagio.
4FF/	.	4FF/	.	0r	00r
4GG/	.	4GG/	.	.	.
4AA/	.	4AA/	.	.	.
4DD/	.	4DD/	.	.	.
=18-	=18-	=18-	=18-	=18-	=18-
4EE/	.	4EE/	.	.	.
4FF/	.	4FF/	.	.	.
4GG/	.	4GG/	.	.	.
4CC/	.	4CC/	.	.	.
*clefC4	*	*clefC4	*	*	*
=19-	=19-	=19-	=19-	=19-	=19-
!LO:TX:b:t=adagio.	!	!LO:TX:b:t=adagio.	!	!LO:TX:b:t=adagio.	!
4c\	.	4c\	.	4c\	.
4d\	.	4d\	.	4d\	.
4e\	.	4e\	.	4e\	.
4A/	.	4A/	.	4A/	.
*	*	*	*	*custos:B	*
!	!	!	!	!LO:LB:g=original	!
=20-	=20-	=20-	=20-	=20-	=20-
4B\	.	4B\	.	4B\	.
4c\	.	4c\	.	4c\	.
4d\	.	4d\	.	4d\	.
!	!	!	!	!LO:TX:t=P:problem=kreska pseudotaktowa	!
4G/	.	4G/	.	4G/	.
*clefF4	*	*clefF4	*	*	*
=21-	=21-	=21-	=21-	=21-	=21-
4Cny/	.	4Cny/	.	8r	0r
.	.	.	.	8C/	.
4D/	.	4D/	.	16D/	.
.	.	.	.	16C/	.
.	.	.	.	16D/	.
.	.	.	.	16F/	.
4E\	-	4E\	-	16E/	.
.	.	.	.	16D/	.
.	.	.	.	16E/	.
.	.	.	.	16G/	.
4AA/	.	4AA/	.	16A/	.
.	.	.	.	16G/	.
.	.	.	.	16A/	.
!	!	!	!	!LO:TX:t=P:problem=kreska pseudotaktowa	!
.	.	.	.	16c\	.
=22-	=22-	=22-	=22-	=22-	=22-
4BB/	.	4BB/	.	16B\	.
.	.	.	.	16A/	.
.	.	.	.	16B\	.
.	.	.	.	16D/	.
4C/	.	4C/	.	16E/	.
.	.	.	.	16D/	.
.	.	.	.	16E/	.
.	.	.	.	16G/	.
4D/	#	4D/	#	16F#X/	.
.	.	.	.	16E/	.
.	.	.	.	16F#/	.
.	.	.	.	16A/	.
4GG/	.	4GG/	.	16B\	.
.	.	.	.	16A/	.
.	.	.	.	16B\	.
!	!	!	!	!LO:TX:t=P:problem=kreska pseudotaktowa	!
.	.	.	.	16d\	.
*custos:C	*	*custos:C	*	*	*
!LO:PB:g=original	!	!LO:PB:g=original	!	!	!
=23-	=23-	=23-	=23-	=23-	=23-
4C/	.	4C/	.	16c\	8r
.	.	.	.	16B\	.
.	.	.	.	8c\	8gny/
4F\	.	4F\	.	4r	16a/
.	.	.	.	.	16g/
.	.	.	.	.	16a/
.	.	.	.	.	16cc\
4G\	.	4G\	.	2r	16b/
.	.	.	.	.	16a/
.	.	.	.	.	16b/
.	.	.	.	.	16dd\
4E\	6	4E\	6	.	16ee\
.	.	.	.	.	16dd\
.	.	.	.	.	16ee\
!	!	!	!	!	!LO:TX:t=P:problem=kreska pseudotaktowa
.	.	.	.	.	16gg\
=24-	=24-	=24-	=24-	=24-	=24-
4D/	.	4D/	.	1r	16ff#X\
.	.	.	.	.	16ee\
.	.	.	.	.	16ff#\
.	.	.	.	.	16a/
4BB/	6	4BB/	6	.	16b/
.	.	.	.	.	16a/
.	.	.	.	.	16b/
.	.	.	.	.	16dd\
*	*	*	*	*	*custos:cc
!	!	!	!	!	!LO:LB:g=original
4AA/	#	4AA/	#	.	16cc#X\
.	.	.	.	.	16b/
.	.	.	.	.	16cc#\
.	.	.	.	.	16ee\
!LO:TX:t=P:problem=kreska pseudotaktowa	!	!LO:TX:t=P:problem=kreska pseudotaktowa	!	!	!
4D/	#	4D/	#	.	16ff#X\
.	.	.	.	.	16ee\
.	.	.	.	.	16ff#\
!	!	!	!	!	!LO:TX:t=P:problem=kreska pseudotaktowa
.	.	.	.	.	16aa\
*	*	*	*	*custos:G	*
!	!	!	!	!LO:PB:g=original	!
=25-	=25-	=25-	=25-	=25-	=25-
4G\	.	4G\	.	8r	16gg\
.	.	.	.	.	16ffny\
.	.	.	.	8G/	8gg\
4C/	.	4C/	.	8C/	4r
.	.	.	.	8c\	.
4D/	.	4D/	.	4Fny/	8r
.	.	.	.	.	8dd\
4E\	.	4E\	.	4r	8g/
!	!	!	!	!	!LO:TX:t=P:problem=kreska pseudotaktowa
.	.	.	.	.	8gg\
=26-	=26-	=26-	=26-	=26-	=26-
4AA/	.	4AA/	.	8r	4ccny\
.	.	.	.	8A/	.
4BB/	.	4BB/	.	8D/	4dd\
.	.	.	.	8d\	.
4C/	.	4C/	.	4G/	4ee\
!LO:TX:t=P:problem=kreska pseudotaktowa	!	!LO:TX:t=P:problem=kreska pseudotaktowa	!	!LO:TX:t=P:problem=kreska pseudotaktowa	!
4D/	.	4D/	.	4r	4a/
=27-	=27-	=27-	=27-	=27-	=27-
4GG/	.	4GG/	.	2r	4b/
4AA/	.	4AA/	.	.	4cc\
4BB/	.	4BB/	.	8r	4dd\
.	.	.	.	8B\	.
!	!	!	!	!	!LO:TX:t=P:problem=kreska pseudotaktowa
4C/	.	4C/	.	8E/	4g/
.	.	.	.	8e\	.
=28-	=28-	=28-	=28-	=28-	=28-
4D/	.	4D/	.	8A/	2r
.	.	.	.	8A/	.
4GG/	.	4GG/	.	16B\	.
.	.	.	.	16A/	.
.	.	.	.	16B\	.
.	.	.	.	16d\	.
4C/	.	4C/	.	16c\	8r
.	.	.	.	16B\	.
.	.	.	.	8c\	8ee\
!LO:TX:t=P:problem=kreska pseudotaktowa	!	!LO:TX:t=P:problem=kreska pseudotaktowa	!	!LO:TX:t=P:problem=kreska pseudotaktowa	!
4D/	#	4D/	#	4r	16ff#X\
.	.	.	.	.	16ee\
.	.	.	.	.	16ff#X\
.	.	.	.	.	16aa\
=29-	=29-	=29-	=29-	=29-	=29-
4E\	.	4E\	.	8r	16gg\
.	.	.	.	.	16ff#X\
.	.	.	.	8c\	16gg\
.	.	.	.	.	16ee\
4F\	.	4F\	.	8F/	8a/
.	.	.	.	8f\	8aa\
4G\	.	4G\	.	8B\	4dd\
.	.	.	.	8G/	.
4C/	.	4C/	.	8C/	4r
!	!	!	!	!LO:TX:t=P:problem=kreska pseudotaktowa	!
.	.	.	.	8c\	.
*	*	*	*	*	*custos:ff
!	!	!	!	!	!LO:LB:g=original
=30-	=30-	=30-	=30-	=30-	=30-
4D/	.	4D/	.	8F/	4ffny\
.	.	.	.	8d\	.
4E\	.	4E\	.	8G/	4gg\
.	.	.	.	8g\	.
4F\	.	4F\	.	4c\	4aa\
4G\	.	4G\	.	4r	4dd\
*	*	*	*	*custos:C	*
!	!	!	!	!LO:LB:g=original	!
=31-	=31-	=31-	=31-	=31-	=31-
4C/	.	4C/	.	8r	4ee\
.	.	.	.	8C/	.
4D/	.	4D/	.	16D/	4ff\
.	.	.	.	16C/	.
.	.	.	.	16D/	.
.	.	.	.	16F/	.
4E\	.	4E\	.	16E/	4gg\
.	.	.	.	16D/	.
.	.	.	.	16E/	.
.	.	.	.	16G/	.
!	!	!	!	!	!LO:TX:t=P:problem=kreska pseudotaktowa
4F\	.	4F\	.	16A/	4cc\
.	.	.	.	16G/	.
.	.	.	.	16A/	.
!	!	!	!	!LO:TX:t=P:problem=kreska pseudotaktowa	!
.	.	.	.	16c\	.
=32-	=32-	=32-	=32-	=32-	=32-
8G\	.	8G\	.	16B\	8r
.	.	.	.	16A/	.
8E\	.	8E\	.	16B\	8g/
.	.	.	.	16E/	.
8F\	.	8F\	.	16F/	16a/
.	.	.	.	16E/	16g/
8A\	.	8A\	.	16F/	16a/
.	.	.	.	16A/	16cc\
*clefC4	*	*clefC4	*	*	*
*custos:G	*	*custos:G	*	*	*
!LO:LB:g=original	!	!LO:LB:g=original	!	!	!
8G/	.	8G/	.	16G/	16b/
.	.	.	.	16F/	16a/
8B\	.	8B\	.	16G/	16b/
.	.	.	.	16B\	16dd\
8c\	.	8c\	.	16c\	16ee\
.	.	.	.	16B\	16dd\
!LO:TX:t=P:problem=kreska pseudotaktowa	!	!LO:TX:t=P:problem=kreska pseudotaktowa	!	!	!
8e\	.	8e\	.	16c\	16ee\
!	!	!	!	!LO:TX:t=P:problem=kreska pseudotaktowa	!LO:TX:t=P:problem=kreska pseudotaktowa
.	.	.	.	16e\	16gg\
=33-	=33-	=33-	=33-	=33-	=33-
4d\	#	4d\	#	16d\	16ff#X\
.	.	.	.	16c\	16ee\
.	.	.	.	8d\	16ff#X\
.	.	.	.	.	16a/
4F#X/	.	4F#X/	.	4r	8d/
.	.	.	.	.	8dd\
4G/	.	4G/	.	4G/	4g/
!	!	!	!	!LO:TX:t=P:problem=kreska pseudotaktowa	!LO:TX:t=P:problem=kreska pseudotaktowa
4A/	.	4A/	.	4A/	4r
=34-	=34-	=34-	=34-	=34-	=34-
4B\	.	4B\	.	4B\	8r
.	.	.	.	.	8ff#X\
4E/	.	4E/	.	4E/	16gg\
.	.	.	.	.	16ff#\
.	.	.	.	.	16gg\
.	.	.	.	.	16bb\
*	*	*	*	*	*custos:aa
!	!	!	!	!	!LO:LB:g=original
4F#X/	.	4F#X/	.	4F#X/	16aa\
.	.	.	.	.	16gg\
.	.	.	.	.	16aa\
.	.	.	.	.	16a/
!LO:TX:t=P:problem=kreska pseudotaktowa	!	!LO:TX:t=P:problem=kreska pseudotaktowa	!	!	!
4G/	.	4G/	.	4G/	16b/
.	.	.	.	.	16a/
.	.	.	.	.	16b/
!	!	!	!	!	!LO:TX:t=P:problem=kreska pseudotaktowa
.	.	.	.	.	16dd\
*	*	*	*	*custos:A	*
!	!	!	!	!LO:LB:g=original	!
=35-	=35-	=35-	=35-	=35-	=35-
4A/	-	4A/	-	4A/	16cc\
.	.	.	.	.	16b/
.	.	.	.	.	16cc\
.	.	.	.	.	16ee\
4D/	.	4D/	.	4D/	16ff#X\
.	.	.	.	.	16ee\
.	.	.	.	.	16ff#\
.	.	.	.	.	16aa\
*clefF4	*	*clefF4	*	*	*
4GG/	.	4GG/	.	8r	16gg\
.	.	.	.	.	16ff#\
.	.	.	.	8G/	8gg\
!	!	!	!	!	!LO:TX:t=P:problem=kreska pseudotaktowa
4C/	.	4C/	.	8C/	4r
!	!	!	!	!LO:TX:t=P:problem=kreska pseudotaktowa	!
.	.	.	.	8c\	.
=36-	=36-	=36-	=36-	=36-	=36-
4D/	-	4D/	-	8Fny/	8r
.	.	.	.	8A/	8a/
4BB/	.	4BB/	.	8D/	16b/
.	.	.	.	.	16a/
.	.	.	.	8d\	16b/
.	.	.	.	.	16dd\
4C/	.	4C/	.	4G/	16cc\
.	.	.	.	.	16b/
.	.	.	.	.	16cc\
.	.	.	.	.	16ee\
4C#X/	.	4C#X/	.	4r	8a/
!	!	!	!	!	!LO:TX:t=P:problem=kreska pseudotaktowa
.	.	.	.	.	8aa\
=37-	=37-	=37-	=37-	=37-	=37-
8D/	.	8D/	.	1r	4dd\
8BB/	.	8BB/	.	.	.
8Cny/	.	8Cny/	.	.	4r
8E\	.	8E\	.	.	.
8D/	.	8D/	.	.	2r
8F#X\	.	8F#X\	.	.	.
8G\	.	8G\	.	.	.
!LO:TX:t=P:problem=kreska pseudotaktowa	!	!LO:TX:t=P:problem=kreska pseudotaktowa	!	!	!
8B\	.	8B\	.	.	.
=38-	=38-	=38-	=38-	=38-	=38-
8A\	.	8A\	.	2r	0r
8C/	.	8C/	.	.	.
8D/	.	8D/	.	.	.
8Fny\	.	8Fny\	.	.	.
4E\	.	4E\	.	8r	.
.	.	.	.	8G/	.
4AA/	.	4AA/	.	16A/	.
.	.	.	.	16G/	.
.	.	.	.	16A/	.
!	!	!	!	!LO:TX:t=P:problem=kreska pseudotaktowa	!
.	.	.	.	16c\	.
*custos:GG	*	*custos:GG	*	*	*
!LO:LB:g=original	!	!LO:LB:g=original	!	!	!
=39-	=39-	=39-	=39-	=39-	=39-
4GG/	.	4GG/	.	16B\	.
.	.	.	.	16A/	.
.	.	.	.	16B\	.
.	.	.	.	16d\	.
4EE/	.	4EE/	.	16e\	.
.	.	.	.	16d\	.
.	.	.	.	16e\	.
.	.	.	.	16g\	.
4DD/	-	4DD/	-	16f\	.
.	.	.	.	16e\	.
.	.	.	.	16f\	.
.	.	.	.	16A/	.
!LO:TX:t=P:problem=kreska pseudotaktowa	!	!LO:TX:t=P:problem=kreska pseudotaktowa	!	!	!
4GG/	.	4GG/	.	16B\	.
.	.	.	.	16A/	.
.	.	.	.	16B\	.
!	!	!	!	!LO:TX:t=P:problem=kreska pseudotaktowa	!
.	.	.	.	16d\	.
*	*	*	*	*	*custos:cc
!	!	!	!	!	!LO:PB:g=original
=40-	=40-	=40-	=40-	=40-	=40-
4C/	.	4C/	.	16c\	8r
.	.	.	.	16B\	.
.	.	.	.	16c\	8cc\
.	.	.	.	16e\	.
*	*	*	*	*custos:f	*
!	!	!	!	!LO:LB:g=original	!
4D/	.	4D/	.	16f\	8f/
.	.	.	.	16e\	.
.	.	.	.	16f\	8ffny\
.	.	.	.	16a\	.
4E\	.	4E\	.	16g\	8b/
.	.	.	.	16f\	.
.	.	.	.	8g\	8ee\
!	!	!	!	!LO:TX:t=P:problem=kreska pseudotaktowa	!
4F\	.	4F\	.	4r	8a/
!	!	!	!	!	!LO:TX:t=P:problem=kreska pseudotaktowa
.	.	.	.	.	8aa\
=41-	=41-	=41-	=41-	=41-	=41-
4G\	.	4G\	.	4G/	8dd\
.	.	.	.	.	8b/
4A\	.	4A\	.	4A/	16cc\
.	.	.	.	.	16b/
.	.	.	.	.	16cc\
.	.	.	.	.	16ee\
4B\	.	4B\	.	4B\	16dd\
.	.	.	.	.	16cc\
.	.	.	.	.	16dd\
.	.	.	.	.	16ff#X\
!LO:TX:t=P:problem=kreska pseudotaktowa	!	!LO:TX:t=P:problem=kreska pseudotaktowa	!	!	!
4E\	.	4E\	.	4E/	16gg\
.	.	.	.	.	16ff#\
.	.	.	.	.	16gg\
!	!	!	!	!	!LO:TX:t=P:problem=kreska pseudotaktowa
.	.	.	.	.	16bb\
=42-	=42-	=42-	=42-	=42-	=42-
4F\	.	4F\	.	4F/	16aa\
.	.	.	.	.	16gg\
.	.	.	.	.	16aa\
.	.	.	.	.	16a/
4G\	.	4G\	.	4G/	16b/
.	.	.	.	.	16a/
.	.	.	.	.	16b/
.	.	.	.	.	16dd\
4A\	.	4A\	.	4A/	16cc\
.	.	.	.	.	16b/
.	.	.	.	.	16cc\
.	.	.	.	.	16ee\
!	!	!	!	!LO:TX:t=P:problem=kreska pseudotaktowa	!
4D/	.	4D/	.	4D/	16ffny\
.	.	.	.	.	16ee\
.	.	.	.	.	16ff\
.	.	.	.	.	16aa\
*	*	*	*	*	*custos:gg
!	!	!	!	!	!LO:LB:g=original
=43-	=43-	=43-	=43-	=43-	=43-
4E\	.	4E\	.	8r	16gg\
.	.	.	.	.	16ff\
.	.	.	.	8E/	8gg\
4F\	.	4F\	.	16F/	4r
.	.	.	.	16E/	.
.	.	.	.	16F/	.
.	.	.	.	16A/	.
4G\	.	4G\	.	16G/	8r
.	.	.	.	16F/	.
.	.	.	.	16G/	8b/
.	.	.	.	16B\	.
!LO:TX:t=P:problem=kreska pseudotaktowa	!	!LO:TX:t=P:problem=kreska pseudotaktowa	!	!	!
4C/	.	4C/	.	16c\	8e/
.	.	.	.	16B\	.
.	.	.	.	16c\	8ee\
!	!	!	!	!LO:TX:t=P:problem=kreska pseudotaktowa	!
.	.	.	.	16e\	.
=44-	=44-	=44-	=44-	=44-	=44-
4D/	#	4D/	#	16d\	8a/
.	.	.	.	16c\	.
.	.	.	.	16d\	8dd\
.	.	.	.	16F#X/	.
4E\	-	4E\	-	16G/	8g/
.	.	.	.	16F#/	.
.	.	.	.	16G/	8gg\
.	.	.	.	16B\	.
*	*	*	*	*custos:A	*
!	!	!	!	!LO:LB:g=original	!
4AA/	.	4AA/	.	16A/	4cc\
.	.	.	.	16G/	.
.	.	.	.	16A/	.
.	.	.	.	16c\	.
!	!	!	!	!	!LO:TX:t=P:problem=kreska pseudotaktowa
4BB/	.	4BB/	.	16d\	4r
.	.	.	.	16c\	.
.	.	.	.	16d\	.
!	!	!	!	!LO:TX:t=P:problem=kreska pseudotaktowa	!
.	.	.	.	16f\	.
=45-	=45-	=45-	=45-	=45-	=45-
4C/	.	4C/	.	16e\	8r
.	.	.	.	16d\	.
.	.	.	.	16e\	8ee\
.	.	.	.	16e\	.
4D/	.	4D/	.	8A/	16ff\
.	.	.	.	.	16ee\
.	.	.	.	8f\	16ff\
.	.	.	.	.	16aa\
!LO:TX:t=P:problem=kreska pseudotaktowa	!	!LO:TX:t=P:problem=kreska pseudotaktowa	!	!	!
2E\	#	2E\	#	8B\	8gg#X\
.	4	.	4	8A/	4aa\
.	.	.	.	8.B\	.
!	!	!	!	!	!LO:TX:t=P:problem=kreska pseudotaktowa
.	#	.	#	.	8gg#X\
!	!	!	!	!LO:TX:t=P:problem=kreska pseudotaktowa	!
.	.	.	.	16c\	.
=46-	=46-	=46-	=46-	=46-	=46-
4AA/	.	4AA/	.	8A/	4aa\
.	.	.	.	8A/	.
4BB/	.	4BB/	.	8D/	4r
.	.	.	.	8d\	.
4C/	.	4C/	.	4G/	8r
.	.	.	.	.	8ee\
!	!	!	!	!LO:TX:t=P:problem=kreska pseudotaktowa	!
4C#X/	.	4C#X/	.	4r	8a/
!	!	!	!	!	!LO:TX:t=P:problem=kreska pseudotaktowa
.	.	.	.	.	8aa\
=47-	=47-	=47-	=47-	=47-	=47-
4D/	#	4D/	#	8r	8dd\
.	.	.	.	8F#X/	8dd\
4E\	-	4E\	-	16G/	8g/
.	.	.	.	16F#/	.
.	.	.	.	16G/	8ggny\
.	.	.	.	16B\	.
4F\	.	4F\	.	16A/	4cc\
.	.	.	.	16G/	.
.	.	.	.	16A/	.
.	.	.	.	16c\	.
!	!	!	!	!	!LO:TX:t=P:problem=kreska pseudotaktowa
4D/	6	4D/	6	16d\	4r
.	.	.	.	16c\	.
.	.	.	.	16d\	.
.	.	.	.	16g\	.
*	*	*	*	*custos:f	*
!	!	!	!	!LO:LB:g=original	!
=48-	=48-	=48-	=48-	=48-	=48-
4Cny/	.	4Cny/	.	16f\	2r
.	.	.	.	16e\	.
.	.	.	.	16f\	.
.	.	.	.	16G/	.
4AA/	.	4AA/	.	16A/	.
.	.	.	.	16G/	.
.	.	.	.	16A/	.
.	.	.	.	16c\	.
4GG/	.	4GG/	.	16B\	8r
.	.	.	.	16A/	.
.	.	.	.	16B\	8b/
.	.	.	.	16d\	.
4C/	.	4C/	.	16e\	8e/
.	.	.	.	16d\	.
.	.	.	.	16e\	8ee\
!	!	!	!	!LO:TX:t=P:problem=kreska pseudotaktowa	!
.	.	.	.	16g\	.
*custos:D	*	*custos:D	*	*	*custos:a
!LO:LB:g=original	!	!LO:LB:g=original	!	!	!LO:LB:g=original
=49-	=49-	=49-	=49-	=49-	=49-
4D/	.	4D/	.	16f\	8a/
.	.	.	.	16e\	.
.	.	.	.	8f\	8a/
4G\	.	4G\	.	4r	16b/
.	.	.	.	.	16a/
.	.	.	.	.	16b/
.	.	.	.	.	16dd\
4C/	.	4C/	.	8r	16cc\
.	.	.	.	.	16b/
.	.	.	.	16ryy	16cc\
.	.	.	.	16BB/	16ee\
4D/	.	4D/	.	16D/	16ff\
.	.	.	.	16C/	16ee\
.	.	.	.	16D/	16ff\
!	!	!	!	!LO:TX:t=P:problem=kreska pseudotaktowa	!LO:TX:t=P:problem=kreska pseudotaktowa
.	.	.	.	16Fny/	16aa\
=50-	=50-	=50-	=50-	=50-	=50-
4E\	-	4E\	-	16E/	16gg\
.	.	.	.	16D/	16ff\
.	.	.	.	16E/	8gg\
.	.	.	.	16G/	.
4AA/	.	4AA/	.	16A/	4r
.	.	.	.	16G/	.
.	.	.	.	16A/	.
.	.	.	.	16c\	.
4BB/	.	4BB/	.	16B\	8r
.	.	.	.	16A/	.
.	.	.	.	16B\	8dd\
.	.	.	.	16B\	.
!LO:TX:t=P:problem=kreska pseudotaktowa	!	!LO:TX:t=P:problem=kreska pseudotaktowa	!	!	!
4C/	.	4C/	.	16c\	16ee\
.	.	.	.	16B\	16dd\
.	.	.	.	16c\	16ee\
!	!	!	!	!	!LO:TX:t=P:problem=kreska pseudotaktowa
.	.	.	.	16e\	16gg\
*	*	*	*	*custos:d	*
!	!	!	!	!LO:LB:g=original	!
=51-	=51-	=51-	=51-	=51-	=51-
4D/	.	4D/	.	16d\	16ff#X\
.	.	.	.	16c\	16ee\
.	.	.	.	16d\	16ff#X\
.	.	.	.	16d\	16ff#\
4G\	.	4G\	.	16G/	16b/
.	.	.	.	32g\	32bb\
.	.	.	.	32g\	32bb\
.	.	.	.	16g\	16bb\
.	.	.	.	16g\	16bb\
4C/	.	4C/	.	16c\	16ee\
.	.	.	.	32e\	32gg\
.	.	.	.	32e\	32gg\
.	.	.	.	16e\	16gg\
.	.	.	.	16e\	16gg\
*	*	*	*	*	*custos:cc
!	!	!	!	!	!LO:LB:g=original
4AA/	.	4AA/	.	16A/	16cc\
.	.	.	.	32c\	32ee\
.	.	.	.	32c\	32ee\
.	.	.	.	16c\	16ee\
!	!	!	!	!LO:TX:t=P:problem=kreska pseudotaktowa	!LO:TX:t=P:problem=kreska pseudotaktowa
.	.	.	.	16c\	16ee\
=52-	=52-	=52-	=52-	=52-	=52-
4FF/	.	4FF/	.	16F/	16a/
.	.	.	.	32A/	32cc\
.	.	.	.	32A/	32cc\
.	.	.	.	16A/	16cc\
.	.	.	.	16A/	16cc\
4D/	.	4D/	.	4D/	4f/
!	!	!	!	!	!LO:TX:t=P:problem=kreska pseudotaktowa
4E\	.	4E\	.	8r	2r
.	.	.	.	8E/	.
4F\	.	4F\	.	16F/	.
.	.	.	.	16E/	.
.	.	.	.	16F/	.
!	!	!	!	!LO:TX:t=P:problem=kreska pseudotaktowa	!
.	.	.	.	16A/	.
=53-	=53-	=53-	=53-	=53-	=53-
[1G	.	[1G	.	16G/	2r
.	.	.	.	16F/	.
.	.	.	.	16G/	.
.	.	.	.	16B\	.
.	.	.	.	16c\	.
.	.	.	.	16B\	.
.	.	.	.	16c\	.
.	.	.	.	16e\	.
.	.	.	.	16d\	8r
.	.	.	.	16c\	.
.	.	.	.	16d\	8b/
.	.	.	.	16d\	.
*	*	*	*	*custos:e	*
!	!	!	!	!LO:LB:g=original	!
.	.	.	.	16e\	16cc\
.	.	.	.	16d\	16b/
.	.	.	.	16e\	16cc\
!	!	!	!	!LO:TX:t=P:problem=kreska pseudotaktowa	!LO:TX:t=P:problem=kreska pseudotaktowa
.	.	.	.	16g\	16ee\
=54-	=54-	=54-	=54-	=54-	=54-
1G]	.	1G]	.	16B\	16dd\
.	.	.	.	16A\	16cc\
.	.	.	.	16B\	16dd\
.	.	.	.	16B\	16dd\
.	.	.	.	16c\	16ee\
.	.	.	.	16B\	16dd\
.	.	.	.	16c\	16ee\
.	.	.	.	16e\	16gg\
.	.	.	.	16B\	16dd\
.	.	.	.	16A/	16cc\
.	.	.	.	8B\	8dd\
!	!	!	!	!	!LO:TX:t=P:problem=kreska pseudotaktowa
.	.	.	.	16r	4r
.	.	.	.	32B\	.
.	.	.	.	32B\	.
.	.	.	.	16B\	.
!	!	!	!	!LO:TX:t=P:problem=kreska pseudotaktowa	!
.	.	.	.	16B\	.
=55-	=55-	=55-	=55-	=55-	=55-
8C/	.	8C/	.	16E/	4ee\
.	.	.	.	32e\	.
.	.	.	.	32e\	.
8C/	.	8C/	.	16e\	.
.	.	.	.	16e\	.
8D/	.	8D/	.	16A/	4ffny\
.	.	.	.	32d\	.
.	.	.	.	32d\	.
8F\	.	8F\	.	16d\	.
.	.	.	.	16d\	.
8E\	.	8E\	.	4G/	4gg\
8G\	.	8G\	.	.	.
!	!	!	!	!LO:TX:t=P:problem=kreska pseudotaktowa	!
8A\	.	8A\	.	4r	4cc\
8c\	.	8c\	.	.	.
=56-	=56-	=56-	=56-	=56-	=56-
8B\	.	8B\	.	16r	4dd\
.	.	.	.	32B\	.
.	.	.	.	32B\	.
8BB/	.	8BB/	.	16B\	.
.	.	.	.	16B\	.
8C/	.	8C/	.	16E/	4ee\
.	.	.	.	32e\	.
.	.	.	.	32e\	.
8E\	.	8E\	.	16e\	.
.	.	.	.	16e\	.
*	*	*	*	*custos:A	*
!	!	!	!	!LO:LB:g=original	!
2D/	5	2D/	5	4A/	4ff\
.	6	.	6	16r	4b/
.	.	.	.	32d\	.
.	.	.	.	32d\	.
.	.	.	.	16d\	.
.	.	.	.	16d\	.
*	*	*	*	*	*custos:cc
!	!	!	!	!	!LO:LB:g=original
=57-	=57-	=57-	=57-	=57-	=57-
1E	#	1E	#	4G#X/	16cc\
.	.	.	.	.	32ee\
.	.	.	.	.	32ee\
.	.	.	.	.	16ee\
!	!	!	!	!	!LO:TX:t=P:problem=kreska pseudotaktowa
.	.	.	.	.	16ee\
.	6 4	.	6 4	2A/	16a/
.	.	.	.	.	32cc\
.	.	.	.	.	32cc\
.	.	.	.	.	16cc\
.	.	.	.	.	16cc\
.	.	.	.	.	2b/
.	5 #	.	5 #	4G#X/	.
=58-	=58-	=58-	=58-	=58-	=58-
1AA	.	1AA	.	1A	1a
=59-	=59-	=59-	=59-	=59-	=59-
*M12/8	*	*M12/8	*	*M12/8	*M12/8
!LO:TX:b:t=allegro.	!	!LO:TX:b:t=allegro.	!	!LO:TX:b:t=allegro.	!LO:TX:b:t=allegro
2.A\	.	2.A\	.	0.r	4ee\
.	.	.	.	.	4.cc\
.	.	.	.	.	16dd\
.	.	.	.	.	16ee\
4.F\	.	4.F\	.	.	4ff\
.	.	.	.	.	4.ff\
8E\	.	8E\	.	.	.
4D/	.	4D/	.	.	.
.	.	.	.	.	16ee\
!	!	!	!	!	!LO:TX:t=P:problem=kreska pseudotaktowa
.	.	.	.	.	16ff\
*custos:G	*	*custos:G	*	*	*
!LO:LB:g=original	!	!LO:LB:g=original	!	!	!
=60-	=60-	=60-	=60-	=60-	=60-
2.G\	.	2.G\	.	.	4.dd\
.	.	.	.	.	8cc\
.	.	.	.	.	4b/
4.E\	.	4.E\	.	.	4ee\
.	.	.	.	.	4.ee\
8D/	.	8D/	.	.	.
!LO:TX:t=P:problem=kreska pseudotaktowa	!	!LO:TX:t=P:problem=kreska pseudotaktowa	!	!	!
4C/	.	4C/	.	.	.
.	.	.	.	.	16dd\
!	!	!	!	!	!LO:TX:t=P:problem=kreska pseudotaktowa
.	.	.	.	.	16ee\
=61-	=61-	=61-	=61-	=61-	=61-
2.F\	.	2.F\	.	2.r	4.cc\
.	.	.	.	.	8b/
.	.	.	.	.	4a/
!	!	!	!	!	!LO:TX:t=P:problem=kreska pseudotaktowa
2.D/	#	2.D/	#	8r	2.dd\
.	.	.	.	8F#X/	.
.	.	.	.	8A/	.
.	.	.	.	8F#X/	.
.	.	.	.	8D/	.
!	!	!	!	!LO:TX:t=P:problem=kreska pseudotaktowa	!
.	.	.	.	8A/	.
=62-	=62-	=62-	=62-	=62-	=62-
2.G\	.	2.G\	.	8B\	2.r
.	.	.	.	8B\	.
.	.	.	.	8d\	.
.	.	.	.	8B\	.
.	.	.	.	8Gny/	.
.	.	.	.	8d\	.
2.E\	-	2.E\	-	8e\	4gg\
.	.	.	.	8G/	.
.	.	.	.	8B\	4.ee\
.	.	.	.	8G/	.
.	.	.	.	8E/	.
!	!	!	!	!LO:TX:t=P:problem=kreska pseudotaktowa	!
.	.	.	.	8B\	16ff\
.	.	.	.	.	16gg\
*	*	*	*	*	*custos:aa
!	!	!	!	!	!LO:LB:g=original
=63-	=63-	=63-	=63-	=63-	=63-
2.AA/	.	2.AA/	.	2.c\	4aa\
.	.	.	.	.	4.aa\
.	.	.	.	.	16gg\
.	.	.	.	.	16aa\
2D/	.	2D/	.	2.r	4.ff\
.	.	.	.	.	8ee\
*clefC4	*	*clefC4	*	*	*
!LO:TX:t=P:problem=kreska pseudotaktowa	!	!LO:TX:t=P:problem=kreska pseudotaktowa	!	!	!LO:TX:t=P:problem=kreska pseudotaktowa
4d\	.	4d\	.	.	4dd\
*	*	*	*	*custos:e	*
!	!	!	!	!LO:LB:g=original	!
=64-	=64-	=64-	=64-	=64-	=64-
4e\	.	4e\	.	4e\	8gg\
.	.	.	.	.	8ee\
4c\	.	4c\	.	4.c\	8gg\
.	.	.	.	.	8ee\
4e\	.	4e\	.	.	8cc\
.	.	.	.	16d\	8gg\
.	.	.	.	16e\	.
2.f\	.	2.f\	.	4f\	8aa\
.	.	.	.	.	8a/
.	.	.	.	4.f\	8cc\
.	.	.	.	.	8a/
.	.	.	.	.	8f/
!	!	!	!	!	!LO:TX:t=P:problem=kreska pseudotaktowa
.	.	.	.	16e\	8cc\
!	!	!	!	!LO:TX:t=P:problem=kreska pseudotaktowa	!
.	.	.	.	16f\	.
=65-	=65-	=65-	=65-	=65-	=65-
2d\	.	2d\	.	4.d\	2.dd\
.	.	.	.	8c\	.
4B\	.	4B\	.	4B\	.
!	!	!	!	!	!LO:TX:t=P:problem=kreska pseudotaktowa
2.e\	.	2.e\	.	4e\	2.r
.	.	.	.	4.e\	.
.	.	.	.	16d\	.
!	!	!	!	!LO:TX:t=P:problem=kreska pseudotaktowa	!
.	.	.	.	16e\	.
=66-	=66-	=66-	=66-	=66-	=66-
2c\	.	2c\	.	4.c\	2.r
.	.	.	.	8B\	.
4A/	.	4A/	.	4A/	.
!LO:TX:t=P:problem=kreska pseudotaktowa	!	!LO:TX:t=P:problem=kreska pseudotaktowa	!	!LO:TX:t=P:problem=kreska pseudotaktowa	!
2.d\	#	2.d\	#	2.d\	4aa\
.	.	.	.	.	4.ff#X\
.	.	.	.	.	16gg\
.	.	.	.	.	16aa\
=67-	=67-	=67-	=67-	=67-	=67-
2.G/	.	2.G/	.	8r	4bb\
.	.	.	.	8B\	.
.	.	.	.	8d\	4.bb\
.	.	.	.	8B\	.
.	.	.	.	8G/	.
.	.	.	.	8d\	16aa\
.	.	.	.	.	16bb\
!	!	!	!	!LO:TX:t=P:problem=kreska pseudotaktowa	!
2.E/	-	2.E/	-	2.e\	4.gg\
.	.	.	.	.	8ffny\
!	!	!	!	!	!LO:TX:t=P:problem=kreska pseudotaktowa
.	.	.	.	.	4ee\
*clefF4	*	*clefF4	*	*	*
=68-	=68-	=68-	=68-	=68-	=68-
2.F\	.	2.F\	.	8r	4aa\
.	.	.	.	8A/	.
.	.	.	.	8c\	4.aa\
.	.	.	.	8A/	.
.	.	.	.	8Fny/	.
.	.	.	.	8c\	16gg\
.	.	.	.	.	16aa\
*	*	*	*	*	*custos:ff
!	!	!	!	!	!LO:LB:g=original
2D/	.	2D/	.	4.d\	4.ff\
.	.	.	.	8c\	8ee\
!	!	!	!	!	!LO:TX:t=P:problem=kreska pseudotaktowa
4G\	.	4G\	.	4B\	4dd\
*	*	*	*	*custos:e	*
!	!	!	!	!LO:PB:g=original	!
=69-	=69-	=69-	=69-	=69-	=69-
2.E\	.	2.E\	.	8e\	2.gg\
.	.	.	.	8G/	.
.	.	.	.	8B\	.
.	.	.	.	8G/	.
.	.	.	.	8E/	.
.	.	.	.	8B\	.
!LO:TX:t=P:problem=kreska pseudotaktowa	!	!LO:TX:t=P:problem=kreska pseudotaktowa	!	!	!
2.C/	.	2.C/	.	8c\	8r
.	.	.	.	8c\	8ee\
.	.	.	.	8e\	8gg\
.	.	.	.	8c\	8ee\
.	.	.	.	8A/	8cc\
!	!	!	!	!LO:TX:t=P:problem=kreska pseudotaktowa	!LO:TX:t=P:problem=kreska pseudotaktowa
.	.	.	.	8e\	8gg\
=70-	=70-	=70-	=70-	=70-	=70-
2.F\	.	2.F\	.	4f\	8aa\
.	.	.	.	.	8a/
.	.	.	.	4.F/	8cc\
.	.	.	.	.	8a/
.	.	.	.	.	8f/
.	.	.	.	16E/	8cc\
.	.	.	.	16F/	.
4D/	.	4D/	.	8D/	4dd\
.	.	.	.	8A/	.
4G\	.	4G\	.	8B\	4.b/
.	.	.	.	8G/	.
4E\	.	4E\	.	8E/	.
!	!	!	!	!LO:TX:t=P:problem=kreska pseudotaktowa	!
.	.	.	.	8B\	16cc\
!	!	!	!	!	!LO:TX:t=P:problem=kreska pseudotaktowa
.	.	.	.	.	16dd\
*custos:C	*	*custos:C	*	*	*
!LO:LB:g=original	!	!LO:LB:g=original	!	!	!
=71-	=71-	=71-	=71-	=71-	=71-
2.C/	.	2.C/	.	8c\	4ee\
.	.	.	.	8G/	.
.	.	.	.	4.E/	4.ee\
.	.	.	.	16F/	16dd\
.	.	.	.	16G/	16ee\
2AA/	.	2AA/	.	4A/	4.cc\
.	.	.	.	4.A/	.
.	.	.	.	.	8b/
!LO:TX:t=P:problem=kreska pseudotaktowa	!	!LO:TX:t=P:problem=kreska pseudotaktowa	!	!	!LO:TX:t=P:problem=kreska pseudotaktowa
4A\	.	4A\	.	.	4a/
.	.	.	.	16G/	.
!	!	!	!	!LO:TX:t=P:problem=kreska pseudotaktowa	!
.	.	.	.	16A/	.
=72-	=72-	=72-	=72-	=72-	=72-
2F\	.	2F\	.	4.F/	2.dd\
.	.	.	.	8E/	.
4D/	.	4D/	.	4D/	.
2.G\	.	2.G\	.	2.G/	8r
.	.	.	.	.	8b/
.	.	.	.	.	8dd\
.	.	.	.	.	8b/
.	.	.	.	.	8g/
!	!	!	!	!	!LO:TX:t=P:problem=kreska pseudotaktowa
.	.	.	.	.	8dd\
=73-	=73-	=73-	=73-	=73-	=73-
2.C/	.	2.C/	.	8r	4ee\
.	.	.	.	8E/	.
.	.	.	.	8G/	4.ee\
.	.	.	.	8E/	.
.	.	.	.	8C/	.
.	.	.	.	8G/	16dd\
.	.	.	.	.	16ee\
*	*	*	*	*custos:A	*
!	!	!	!	!LO:LB:g=original	!
!LO:TX:t=P:problem=kreska pseudotaktowa	!	!LO:TX:t=P:problem=kreska pseudotaktowa	!	!	!
2.F\	.	2.F\	.	8A/	2.cc\
.	.	.	.	8A/	.
.	.	.	.	8c\	.
.	.	.	.	8A/	.
.	.	.	.	8F/	.
!	!	!	!	!LO:TX:t=P:problem=kreska pseudotaktowa	!
.	.	.	.	8c\	.
*	*	*	*	*	*custos:b
!	!	!	!	!	!LO:LB:g=original
=74-	=74-	=74-	=74-	=74-	=74-
2.D/	#	2.D/	#	8e\	2.r
.	.	.	.	8F#X/	.
.	.	.	.	8A/	.
.	.	.	.	8F#X/	.
.	.	.	.	8D/	.
.	.	.	.	8A/	.
2.BB/	.	2.BB/	.	2B\	8r
.	.	.	.	.	8b/
.	.	.	.	.	8dd\
.	.	.	.	.	8b/
.	.	.	.	4r	8g/
!	!	!	!	!	!LO:TX:t=P:problem=kreska pseudotaktowa
.	.	.	.	.	8dd\
=75-	=75-	=75-	=75-	=75-	=75-
2C/	.	2C/	.	4e\	8ee\
.	.	.	.	.	8ee\
.	.	.	.	4.c\	8gg\
.	.	.	.	.	8ee\
4c\	.	4c\	.	.	8cc\
.	.	.	.	16d\	8gg\
.	.	.	.	16e\	.
!LO:TX:t=P:problem=kreska pseudotaktowa	!	!LO:TX:t=P:problem=kreska pseudotaktowa	!	!	!
2.A\	.	2.A\	.	4A/	8aa\
.	.	.	.	.	8cc\
.	.	.	.	4.c\	8ee\
.	.	.	.	.	8cc\
.	.	.	.	.	8a/
!	!	!	!	!	!LO:TX:t=P:problem=kreska pseudotaktowa
.	.	.	.	16B\	8ee\
!	!	!	!	!LO:TX:t=P:problem=kreska pseudotaktowa	!
.	.	.	.	16c\	.
=76-	=76-	=76-	=76-	=76-	=76-
2.F\	.	2.F\	.	4.A/	8ff\
.	.	.	.	.	8cc\
.	.	.	.	.	4.a/
.	.	.	.	8G/	.
.	.	.	.	4Fny/	.
.	.	.	.	.	16b/
.	.	.	.	.	16cc\
*	*	*	*	*clefF4	*
2.D/	.	2.D/	.	4F\	4dd\
.	.	.	.	4.D/	4.dd\
.	.	.	.	16E\	16cc\
!	!	!	!	!LO:TX:t=P:problem=kreska pseudotaktowa	!LO:TX:t=P:problem=kreska pseudotaktowa
.	.	.	.	16F\	16dd\
=77-	=77-	=77-	=77-	=77-	=77-
2.G\	.	2.G\	.	4G\	4.b/
.	.	.	.	4.G\	.
.	.	.	.	.	8a/
.	.	.	.	.	4g/
.	.	.	.	16F\	.
.	.	.	.	16G\	.
!	!	!	!	!	!LO:TX:t=P:problem=kreska pseudotaktowa
2E\	.	2E\	.	4.E\	2.cc\
.	.	.	.	8D/	.
!LO:TX:t=P:problem=kreska pseudotaktowa	!	!LO:TX:t=P:problem=kreska pseudotaktowa	!	!	!
4C/	.	4C/	.	4C/	.
*	*	*	*	*custos:F	*
!	!	!	!	!LO:LB:g=original	!
=78-	=78-	=78-	=78-	=78-	=78-
2.F\	.	2.F\	.	4F\	8r
.	.	.	.	.	8a/
.	.	.	.	4.F\	8cc\
.	.	.	.	.	8a/
.	.	.	.	.	8f/
.	.	.	.	16E\	8cc\
.	.	.	.	16F\	.
2D/	.	2D/	.	4.D/	[<2.dd\
.	.	.	.	8C/	.
!	!	!	!	!LO:TX:t=P:problem=kreska pseudotaktowa	!
4BB/	.	4BB/	.	4BB/	.
*	*	*	*	*	*custos:dd
!	!	!	!	!	!LO:LB:g=original
=79-	=79-	=79-	=79-	=79-	=79-
!	!	!	!	!	!LO:TX:t=P:problem=brak zakończenia ligatury
2E\	7	2E\	7	2E\	4dd\]
.	.	.	.	.	4g#X/
4AA/	.	4AA/	.	4AA/	4.cc\
2.EE/	4	2.EE/	4	2.EE/	.
.	.	.	.	.	8a/
.	$	.	$	.	2b/
=80-	=80-	=80-	=80-	=80-	=80-
1.AA	.	1.AA	.	1.AA	1.a
*clefC4	*	*clefC4	*	*clefC4	*
=81-	=81-	=81-	=81-	=81-	=81-
*M2/2	*	*M2/2	*	*M2/2	*M2/2
*met(C|)	*	*met(C|)	*	*met(C|)	*met(C|)
!LO:TX:b:t=preſto.	!	!LO:TX:b:t=preſto.	!	!LO:TX:b:t=allegro & preſto.	!
4r	.	4r	.	4r	0r
8A/	.	8A/	.	8A/	.
8c\	.	8c\	.	8c\	.
4e\	.	4e\	.	8e\	.
.	.	.	.	16d\	.
.	.	.	.	16c\	.
8B\	.	8B\	.	8B\	.
!	!	!	!	!LO:TX:t=P:problem=kreska pseudotaktowa	!
8e\	.	8e\	.	8e\	.
*custos:A	*	*custos:A	*	*	*
!LO:LB:g=original	!	!LO:LB:g=original	!	!	!
=82-	=82-	=82-	=82-	=82-	=82-
8A/	.	8A/	.	16A/	.
.	.	.	.	16A/	.
8c\	.	8c\	.	16c\	.
.	.	.	.	16A/	.
8e\	.	8e\	.	8e\	.
8f\	.	8f\	.	8f\	.
4g\	.	4g\	.	4g\	.
!LO:TX:t=P:problem=kreska pseudotaktowa	!	!LO:TX:t=P:problem=kreska pseudotaktowa	!	!	!
4f\	.	4f\	.	4f\	.
=83-	=83-	=83-	=83-	=83-	=83-
8e\	.	8e\	.	8e\	4r
8d\	.	8d\	.	8d\	.
8c\	.	8c\	.	8c\	8ee\
8B\	.	8B\	.	8B\	8gg\
4A/	.	4A/	.	8A/	8aa\
.	.	.	.	8B\	16gg\
.	.	.	.	.	16ff\
!	!	!	!	!LO:TX:t=P:problem=kreska pseudotaktowa	!
4c\	.	4c\	.	4c\	8ee\
.	.	.	.	.	8aa\
=84-	=84-	=84-	=84-	=84-	=84-
8d\	.	8d\	.	8d\	16dd\
.	.	.	.	.	16dd\
8D/	.	8D/	.	8D/	16ff\
.	.	.	.	.	16dd\
8F/	.	8F/	.	8F/	8aa\
8G/	.	8G/	.	8G/	8bb\
*	*	*	*	*custos:A	*
!	!	!	!	!LO:LB:g=original	!
8A/	.	8A/	.	8A/	4ccc\
8c\	.	8c\	.	8c\	.
!	!	!	!	!	!LO:TX:t=P:problem=kreska pseudotaktowa
8d\	.	8d\	.	8d\	4bb\
!LO:TX:t=P:problem=kreska pseudotaktowa	!	!LO:TX:t=P:problem=kreska pseudotaktowa	!	!	!
8e\	.	8e\	.	8e\	.
=85-	=85-	=85-	=85-	=85-	=85-
8f\	.	8f\	.	8f\	8aa\
8e\	.	8e\	.	8e\	8gg\
8d\	.	8d\	.	8d\	8ff\
8c\	.	8c\	.	8c\	8ee\
4B\	.	4B\	.	4B\	8dd\
.	.	.	.	.	16cc\
.	.	.	.	.	16b/
8c\	.	8c\	.	8c\	4.ee\
8E/	.	8E/	.	8E/	.
*clefF4	*	*clefF4	*	*clefF4	*
=86-	=86-	=86-	=86-	=86-	=86-
4.F\	7	4.F\	7	4.F\	.
.	.	.	.	.	8cc\
.	6	.	6	.	4.dd\
8D/	.	8D/	.	8D/	.
4E\	7	4E\	7	4E\	.
.	.	.	.	.	8dd\
4AA/	.	4AA/	.	4AA/	4cc\
=87-	=87-	=87-	=87-	=87-	=87-
4EE/	.	4EE/	.	4EE/	2b/
8E\	.	8E\	.	8E\	.
8G\	.	8G\	.	8G\	.
4A\	.	4A\	.	8A\	2r
.	.	.	.	16G\	.
.	.	.	.	16F\	.
8E\	.	8E\	.	8E\	.
!	!	!	!	!LO:TX:t=P:problem=kreska pseudotaktowa	!
8A\	.	8A\	.	8A\	.
*	*	*	*	*	*custos:g
!	!	!	!	!	!LO:PB:g=original
=88-	=88-	=88-	=88-	=88-	=88-
4D/	.	4D/	.	16D/	2r
.	.	.	.	16D/	.
.	.	.	.	16F\	.
.	.	.	.	16D/	.
8A\	.	8A\	.	8A\	.
8B\	.	8B\	.	8B\	.
4c\	.	4c\	.	4c\	4r
4B\	6	4B\	6	4B\	16gny/
.	.	.	.	.	16g/
.	.	.	.	.	16b/
.	.	.	.	.	16g/
*custos:A	*	*custos:A	*	*	*
!LO:LB:g=original	!	!LO:LB:g=original	!	!	!
=89-	=89-	=89-	=89-	=89-	=89-
4A\	.	4A\	.	8A\	4cc\
.	.	.	.	8G\	.
4F\	.	4F\	.	8F\	8a/
.	.	.	.	16E\	8cc\
.	.	.	.	16D/	.
4C/	.	4C/	.	8C/	8ee\
.	.	.	.	8D/	16dd\
.	.	.	.	.	16cc\
4E\	.	4E\	.	4E\	8b/
!	!	!	!	!	!LO:TX:t=P:problem=kreska pseudotaktowa
.	.	.	.	.	8ee\
*	*	*	*	*custos:F	*
!	!	!	!	!LO:LB:g=original	!
=90-	=90-	=90-	=90-	=90-	=90-
8F\	.	8F\	.	16F\	16a/
.	.	.	.	16F\	16a/
8A\	.	8A\	.	16A\	16cc\
.	.	.	.	16F\	16a/
*clefC4	*	*clefC4	*	*clefC4	*
8c\	.	8c\	.	8c\	8ee\
8d\	.	8d\	.	8d\	8ff\
8e\	.	8e\	.	8e\	4gg\
8G/	.	8G/	.	8G/	.
!	!	!	!	!	!LO:TX:t=P:problem=kreska pseudotaktowa
8A/	.	8A/	.	8A\	4ff\
!LO:TX:t=P:problem=kreska pseudotaktowa	!	!LO:TX:t=P:problem=kreska pseudotaktowa	!	!LO:TX:t=P:problem=kreska pseudotaktowa	!
8B\	.	8B\	.	8B\	.
=91-	=91-	=91-	=91-	=91-	=91-
2c\	.	2c\	.	4.c\	8ee\
.	.	.	.	.	8dd\
.	.	.	.	.	8cc\
.	.	.	.	16d\	8b/
.	.	.	.	16e\	.
4f\	.	4f\	.	4f\	4a/
4e\	.	4e\	.	4e\	16cc\
.	.	.	.	.	16cc\
.	.	.	.	.	16ee\
!	!	!	!	!	!LO:TX:t=P:problem=kreska pseudotaktowa
.	.	.	.	.	16cc\
=92-	=92-	=92-	=92-	=92-	=92-
2d\	5	2d\	5	4.d\	4ff\
.	.	.	.	.	16dd\
.	.	.	.	.	16dd\
.	6	.	6	8d\	16ff\
.	.	.	.	.	16dd\
4c\	.	4c\	.	4c\	4gg\
!	!	!	!	!LO:TX:t=P:problem=kreska pseudotaktowa	!
4B\	6	4B\	6	4r	16g/
.	.	.	.	.	16g/
.	.	.	.	.	16b/
.	.	.	.	.	16g/
*	*	*	*	*	*custos:cc
!	!	!	!	!	!LO:LB:g=original
=93-	=93-	=93-	=93-	=93-	=93-
8C/	.	8C/	.	16C/	4cc\
.	.	.	.	16C/	.
8E/	.	8E/	.	16E/	.
.	.	.	.	16C/	.
4F/	.	4F/	.	4F/	16a/
.	.	.	.	.	16a/
.	.	.	.	.	16cc\
.	.	.	.	.	16a/
8D/	.	8D/	.	16D/	4dd\
.	.	.	.	16D/	.
8F/	.	8F/	.	16F/	.
.	.	.	.	16D/	.
4G/	.	4G/	.	4G/	16b/
.	.	.	.	.	16b/
.	.	.	.	.	16dd\
!	!	!	!	!	!LO:TX:t=P:problem=kreska pseudotaktowa
.	.	.	.	.	16b/
=94-	=94-	=94-	=94-	=94-	=94-
8E/	.	8E/	.	16E/	4ee\
.	.	.	.	16E/	.
8G/	.	8G/	.	16G/	.
.	.	.	.	16E/	.
4A/	.	4A/	.	16A/	8cc\
.	.	.	.	16A/	.
.	.	.	.	16c\	8ee\
.	.	.	.	16A/	.
!LO:TX:t=P:problem=kreska pseudotaktowa	!	!LO:TX:t=P:problem=kreska pseudotaktowa	!	!	!
2G/	3	2G/	3	8B\	8gg\
.	4	.	4	4c\	16ff\
.	.	.	.	.	16ee\
.	.	.	.	.	8dd\
!	!	!	!	!	!LO:TX:t=P:problem=kreska pseudotaktowa
.	3	.	3	8B\	8gg\
*	*	*	*	*custos:c	*
!	!	!	!	!LO:LB:g=original	!
=95-	=95-	=95-	=95-	=95-	=95-
4A/	.	4A/	.	8c\	16cc\
.	.	.	.	.	16cc\
.	.	.	.	8A/	16ee\
.	.	.	.	.	16cc\
8G/	.	8G/	.	16G/	4gg\
.	.	.	.	16G/	.
8B\	.	8B\	.	16B\	.
.	.	.	.	16G/	.
4c\	.	4c\	.	4c\	16ee\
.	.	.	.	.	16ee\
.	.	.	.	.	16gg\
.	.	.	.	.	16ee\
!	!	!	!	!	!LO:TX:t=P:problem=kreska pseudotaktowa
8A/	.	8A/	.	16A/	4aa\
.	.	.	.	16A/	.
8c\	.	8c\	.	16c\	.
!	!	!	!	!LO:TX:t=P:problem=kreska pseudotaktowa	!
.	.	.	.	16A/	.
=96-	=96-	=96-	=96-	=96-	=96-
4d\	.	4d\	.	4d\	16ff#X\
.	.	.	.	.	16ff#\
.	.	.	.	.	16aa\
.	.	.	.	.	16ff#\
8B\	.	8B\	.	16B\	4bb\
.	.	.	.	16B\	.
8d\	.	8d\	.	16d\	.
.	.	.	.	16B\	.
4e\	.	4e\	.	4e\	16gg\
.	.	.	.	.	16gg\
.	.	.	.	.	16bb\
.	.	.	.	.	16gg\
!	!	!	!	!	!LO:TX:t=P:problem=kreska pseudotaktowa
8C/	.	8C/	.	8C/	4ccc\
!	!	!	!	!LO:TX:t=P:problem=kreska pseudotaktowa	!
8E/	.	8E/	.	8E/	.
*custos:G	*	*custos:G	*	*	*custos:g
!LO:LB:g=original	!	!LO:LB:g=original	!	!	!LO:LB:g=original
=97-	=97-	=97-	=97-	=97-	=97-
4G/	.	4G/	.	8G/	1r
.	.	.	.	16F/	.
.	.	.	.	16E/	.
*clefF4	*	*clefF4	*	*	*
4BB/	.	4BB/	.	8D/	.
.	.	.	.	8G/	.
8C/	.	8C/	.	16C/	.
.	.	.	.	16C/	.
8E\	.	8E\	.	16E/	.
.	.	.	.	16C/	.
8F\	.	8F\	.	8F/	.
!	!	!	!	!LO:TX:t=P:problem=kreska pseudotaktowa	!
8G\	.	8G\	.	8G/	.
=98-	=98-	=98-	=98-	=98-	=98-
4A\	.	4A\	.	4A/	4r
[<4G\	.	[<4G\	.	4.G/	8g/
.	.	.	.	.	8b/
4G\]	2	4G\]	2	.	8dd\
.	.	.	.	8G/	16cc\
.	.	.	.	.	16b/
4F\	.	4F\	.	4F/	8a/
!	!	!	!	!	!LO:TX:t=P:problem=kreska pseudotaktowa
.	.	.	.	.	8dd\
=99-	=99-	=99-	=99-	=99-	=99-
4.E\	.	4.E\	.	4.E/	16g/
.	.	.	.	.	16g/
.	.	.	.	.	16b/
.	.	.	.	.	16g/
.	.	.	.	.	8cc\
8D/	.	8D/	.	8D/	8dd\
8C/	.	8C/	.	8C/	4ee\
8AA/	.	8AA/	.	8AA/	.
4D/	.	4D/	.	8D/	8dd\
!	!	!	!	!	!LO:TX:t=P:problem=kreska pseudotaktowa
.	.	.	.	16E/	8cc\
.	.	.	.	16F/	.
*	*	*	*	*custos:G	*
!	!	!	!	!LO:LB:g=original	!
=100-	=100-	=100-	=100-	=100-	=100-
4G\	.	4G\	.	4G/	8b/
.	.	.	.	.	8dd\
4E\	.	4E\	.	8G/	4.g/
.	.	.	.	8B\	.
4BB/	.	4BB/	.	8d\	.
.	.	.	.	16c\	8g/
.	.	.	.	16B\	.
4D/	#	4D/	#	8A/	4f#X/
.	.	.	.	8d\	.
*clefC4	*	*clefC4	*	*	*
=101-	=101-	=101-	=101-	=101-	=101-
8G/	.	8G/	.	16G/	16g/
.	.	.	.	16G/	16b/
8B\	.	8B\	.	16B\	16dd\
.	.	.	.	16G/	16b/
8c\	.	8c\	.	8c\	8ee\
8d\	.	8d\	.	8d\	8ffny\
4e\	.	4e\	.	4e\	8gg\
.	.	.	.	.	8g/
!LO:TX:t=P:problem=kreska pseudotaktowa	!	!LO:TX:t=P:problem=kreska pseudotaktowa	!	!LO:TX:t=P:problem=kreska pseudotaktowa	!
4d\	.	4d\	.	4d\	8a/
.	.	.	.	.	8b/
=102-	=102-	=102-	=102-	=102-	=102-
4c\	.	4c\	.	4c\	2cc\
*clefF4	*	*clefF4	*	*clefF4	*
8AA/	.	8AA/	.	8AA/	.
8C/	.	8C/	.	8C/	.
4E\	.	4E\	.	8E\	2r
.	.	.	.	16D/	.
.	.	.	.	16C/	.
8BB/	.	8BB/	.	8BB/	.
!LO:TX:t=P:problem=kreska pseudotaktowa	!	!LO:TX:t=P:problem=kreska pseudotaktowa	!	!LO:TX:t=P:problem=kreska pseudotaktowa	!
8E\	.	8E\	.	8E\	.
=103-	=103-	=103-	=103-	=103-	=103-
8AA/	.	8AA/	.	16AA/	2r
.	.	.	.	16AA/	.
8C/	.	8C/	.	16C/	.
.	.	.	.	16AA/	.
8D/	.	8D/	.	8D/	.
8E\	.	8E\	.	8E\	.
4F\	.	4F\	.	4F\	4r
4E\	6	4E\	6	4E\	8ee\
!	!	!	!	!	!LO:TX:t=P:problem=kreska pseudotaktowa
.	.	.	.	.	8gg\
*custos:D	*	*custos:D	*	*	*
!LO:LB:g=original	!	!LO:LB:g=original	!	!	!
=104-	=104-	=104-	=104-	=104-	=104-
4D/	.	4D/	.	4D/	8aa\
.	.	.	.	.	16gg\
.	.	.	.	.	16ff\
*	*	*	*	*	*custos:ee
!	!	!	!	!	!LO:LB:g=original
4C#X/	.	4C#X/	.	4C#X/	8ee\
.	.	.	.	.	8aa\
2D/	5	2D/	5	4.D/	16dd\
.	.	.	.	.	16dd\
.	.	.	.	.	16ff\
.	.	.	.	.	16dd\
.	.	.	.	.	8aa\
.	6	.	6	16Cny/	8bb\
!	!	!	!	!LO:TX:t=P:problem=kreska pseudotaktowa	!
.	.	.	.	16BB/	.
*	*	*	*	*custos:AA	*
!	!	!	!	!LO:LB:g=original	!
=105-	=105-	=105-	=105-	=105-	=105-
4AA/	.	4AA/	.	4AA/	4ccc\
4GG#X/	.	4GG#X/	.	4GG#X/	4bb\
4AA/	.	4AA/	.	4AA/	2aa\
*clefC4	*	*clefC4	*	*clefC4	*
8A/	.	8A/	.	8A/	.
8c\	.	8c\	.	8c\	.
=106-	=106-	=106-	=106-	=106-	=106-
4e\	.	4e\	.	8e\	2r
.	.	.	.	16d\	.
.	.	.	.	16c\	.
4G#X/	.	4G#X/	.	8B\	.
.	.	.	.	8e\	.
4A/	.	4A/	.	8A/	4r
.	.	.	.	8G/	.
!	!	!	!	!LO:TX:t=P:problem=kreska pseudotaktowa	!
4F/	.	4F/	.	4F/	8a/
.	.	.	.	.	8cc\
=107-	=107-	=107-	=107-	=107-	=107-
2E/	.	2E/	.	4.E/	8ee\
.	.	.	.	.	16dd\
.	.	.	.	.	16cc\
.	.	.	.	.	8b/
.	.	.	.	8E/	8ee\
4F/	.	4F/	.	8F/	4.a/
.	.	.	.	16E/	.
.	.	.	.	16D/	.
4Cny/	.	4Cny/	.	4C/	.
.	.	.	.	.	8g/
=108-	=108-	=108-	=108-	=108-	=108-
4D/	.	4D/	.	4D/	2fny/
*clefF4	*	*clefF4	*	*clefF4	*
8D/	.	8D/	.	8D/	.
8F\	.	8F\	.	8F\	.
!	!	!	!	!	!LO:TX:t=P:problem=kreska pseudotaktowa
4A\	.	4A\	.	8A\	2e/
.	.	.	.	16G\	.
.	.	.	.	16F\	.
4C#X/	.	4C#X/	.	8E\	.
.	.	.	.	8A\	.
=109-	=109-	=109-	=109-	=109-	=109-
2D/	.	2D/	.	2D/	4r
.	.	.	.	.	8dd\
.	.	.	.	.	8ff\
2C#X/	.	2C#X/	.	2C#X/	8aa\
.	.	.	.	.	16gg\
.	.	.	.	.	16ff\
.	.	.	.	.	8ee\
.	.	.	.	.	8aa\
=110-	=110-	=110-	=110-	=110-	=110-
1D	.	1D	.	2.D/	4.dd\
.	.	.	.	.	8ee\
.	.	.	.	.	2ff\
.	.	.	.	4DD/	.
=111-	=111-	=111-	=111-	=111-	=111-
1AAl;	.	1AAl;	.	1AAl;	1eel;<
==	==	==	==	==	==
*-	*-	*-	*-	*-	*-
!!!system-decoration: [(str)]<klav>
!!!RDF**kern: > = above
!!!RDF**kern: < = below
!!!RDF**kern: l = terminal long
!!!ENC: Anastazja Marusiak
!!!END: 2022-11-08
!!!ENC: Andrzej Kubiczek
!!!END: 2022-11-27
!!!YEC: Copyright 2022 Narodowy Instytut Fryderyka Chopina (https://polishscores.org)
!!!YEM: License CC-BY-4.0 (https://creativecommons.org/licenses/by/4.0)
